X: 536
T: Systerpolska 1, variant
S: Efter [[!Timas Hans Hansson]]
N: Påhl Olle spelar Systerpolska 1 och [[Musik/456|2]] hemma hos Jonny Soling i en filmad upptagning.
O: Dalarna, Ore
R: Polska
Z: Håkan Lidén, 2008-09-29
M: 3/4
L: 1/8
K: Gm
D | G>B d2 g>b | a^f/a/ g2 d>c | Bd/B/ Ac/B/ GG/A/ | BA/G/ G/^F/A/F/ D2 |
GG/B/ d2 g>b | a^f/a/ g2 d>c | Bd/B/ Ac/B/ GB/G/ | D/^F/A/F/ G3 :|
|: D | d>c B/A/B/c/ dd/e/ | c>A F/=E/F/A/ cc/d/ | B>A G/^F/G/A/ BB/d/ | A>G G/^F/A/F/ D2 
d>c B/A/B/c/ dd/e/ | c>A F/=E/F/A/ cc/d/ | B>A G/^F/G/A/ Bd/B/ | AG/^F/ G3 :|]
(:musicend:)

(:music:)
